-- $ n "16 11[12..~ <8 9>]15" /// [28..~ <23 16>]26

d2 $ layer [id, jux rev, slow 4, striate 2]
-- $ every 4 (jux rev) $ every 2 (scramble 4)
-- $ every 4 (0.25 <~)
$ n "[28..~ <23 16>]26" # sound "vox-slice"
# hpf 750
# room 0.9
# sz 0.95
# gain (range 0.1 0.5 $ slow 4 sine)
# hpq (range 0.3 0.5 sine)
-- # speed 0.5
