d1 $ splice 2 8 $ sound "breaksss"
-- # gain 1.2

d1 $ splice 2 8 $ sound "amen_breaks"
-- # gain 1.2

d3 $ splice 4 10 $ sound "155bpm:3"
# gain 1.2

d2 $ splice 2 8 $ sound "sk-breaks"
-- # gain 1.2

d3 silence
